UI/Discovery-Sharing/SVG/grid-typeB_outline_24px.svg

<svg xmlns="http://www.w3.org/2000/svg" width="24" height="24" viewBox="0 0 24 24"><rect width="24" height="24" style="fill:none"/><path d="M3,3H7V7H3Zm7,4h4V3H10Zm7-4V7h4V3ZM3,14H7V10H3Zm7,0h4V10H10Zm7,0h4V10H17ZM3,21H7V17H3Zm7,0h4V17H10Zm7,0h4V17H17Z"/></svg>

<svg width="24" height="24" viewBox="0 0 24 24" fill="none" xmlns="http://www.w3.org/2000/svg">
<path d="M3 3H7V7H3V3ZM10 7H14V3H10V7ZM17 3V7H21V3H17ZM3 14H7V10H3V14ZM10 14H14V10H10V14ZM17 14H21V10H17V14ZM3 21H7V17H3V21ZM10 21H14V17H10V21ZM17 21H21V17H17V21Z" fill="#0F1621"/>
</svg>
